img/icons/close.svg

<svg width="40" height="40" viewBox="0 0 40 40" fill="none" xmlns="http://www.w3.org/2000/svg">
<path d="M27.9551 13.8129L13.813 27.9551C13.3298 28.4382 12.5284 28.4382 12.0452 27.9551C11.562 27.4719 11.562 26.6705 12.0452 26.1873L26.1873 12.0451C26.6705 11.562 27.4719 11.562 27.9551 12.0451C28.4383 12.5283 28.4383 13.3297 27.9551 13.8129Z" fill="#F3C469"/>
<path d="M27.9551 27.9549C27.4719 28.438 26.6705 28.438 26.1873 27.9549L12.0452 13.8127C11.562 13.3295 11.562 12.5281 12.0452 12.0449C12.5284 11.5618 13.3298 11.5618 13.813 12.0449L27.9551 26.1871C28.4383 26.6703 28.4383 27.4717 27.9551 27.9549Z" fill="#F3C469"/>
</svg>

<svg width="40" height="40" viewBox="0 0 40 40" fill="none" xmlns="http://www.w3.org/2000/svg"><path d="M27.955 13.813L13.813 27.955a1.26 1.26 0 01-1.768 0 1.26 1.26 0 010-1.768l14.142-14.142a1.26 1.26 0 011.768 0 1.26 1.26 0 010 1.768z" fill="#F3C469"/><path d="M27.955 27.955a1.26 1.26 0 01-1.768 0L12.045 13.813a1.26 1.26 0 010-1.768 1.26 1.26 0 011.768 0l14.142 14.142a1.26 1.26 0 010 1.768z" fill="#F3C469"/></svg>
